X: 4022
T: Miss Davidson's Reel
C: By Nath. Gow
%R: reel
B: Niel Gow & Sons "A Fourth Collection of Strathspey Reels, etc." v.4 p.2 #2
Z: 2022 John Chambers <jc:trillian.mit.edu>
M: C|
L: 1/8
K: F
% - - - - - - - - - -
V: 1 staves=2
a |\
Tf2af f<f a>f | Tf2af gddg | Tf2a>f g>fa>f | g>ef>d Tc>A F :| c | AFcF TA2Fc | dfTc>f BGGc |
AFcF TA2Fc | (d/e/f) ce fFFc || AFcF TA2Fc | dfTc>A dGGc | AFcA a>fg>e | f>dc<f AFF |]
% - - - - - - - - - -
% Voice 2 preserves the staff layout in the book.
V: 2 clef=bass middle=d
z | F2f2 f2f2 | f2f2 B2B2 | A2F2 f2f2 | c2B2 A2F :| z | [f2F2][f2F2] [f2F2]A2 | B2A2 G2G2 |
F2f2 F2A2 | B2c2 F2F2 || F2f2 F2A2 | B2A2 G2G2 | F2F2 f2c2 | B2c2 F2F |]


